svg/fluentui-system-icons/ic_fluent_laptop_dismiss_20_filled.svg

<svg width="20" height="20" viewBox="0 0 20 20" fill="none" xmlns="http://www.w3.org/2000/svg">
<path d="M11 5.5C11 8.53757 8.53757 11 5.5 11C4.59978 11 3.75007 10.7837 3 10.4003V12.5C3 13.3284 3.67157 14 4.5 14H15.5C16.3284 14 17 13.3284 17 12.5V6.5C17 5.67157 16.3284 5 15.5 5H10.9776C10.9924 5.16468 11 5.33146 11 5.5ZM2 15.5C2 15.2239 2.22386 15 2.5 15H17.5C17.7761 15 18 15.2239 18 15.5C18 15.7761 17.7761 16 17.5 16H2.5C2.22386 16 2 15.7761 2 15.5ZM5.5 10C7.98528 10 10 7.98528 10 5.5C10 3.01472 7.98528 1 5.5 1C3.01472 1 1 3.01472 1 5.5C1 7.98528 3.01472 10 5.5 10ZM7.35355 3.64645C7.54882 3.84171 7.54882 4.15829 7.35355 4.35355L6.20711 5.5L7.35355 6.64645C7.54882 6.84171 7.54882 7.15829 7.35355 7.35355C7.15829 7.54882 6.84171 7.54882 6.64645 7.35355L5.5 6.20711L4.35355 7.35355C4.15829 7.54882 3.84171 7.54882 3.64645 7.35355C3.45118 7.15829 3.45118 6.84171 3.64645 6.64645L4.79289 5.5L3.64645 4.35355C3.45118 4.15829 3.45118 3.84171 3.64645 3.64645C3.84171 3.45118 4.15829 3.45118 4.35355 3.64645L5.5 4.79289L6.64645 3.64645C6.84171 3.45118 7.15829 3.45118 7.35355 3.64645Z" fill="#212121"/>
</svg>

<svg xmlns="http://www.w3.org/2000/svg" width="20" height="20"><path d="M11 5.5a5.5 5.5 0 0 1-8 4.9v2.1A1.5 1.5 0 0 0 4.5 14h11a1.5 1.5 0 0 0 1.5-1.5v-6A1.5 1.5 0 0 0 15.5 5h-4.522c.014.165.022.331.022.5Zm-9 10a.5.5 0 0 1 .5-.5h15a.5.5 0 0 1 0 1h-15a.5.5 0 0 1-.5-.5ZM5.5 10a4.5 4.5 0 1 0 0-9 4.5 4.5 0 0 0 0 9Zm1.854-6.354a.5.5 0 0 1 0 .708L6.207 5.5l1.147 1.146a.5.5 0 1 1-.708.708L5.5 6.207 4.354 7.354a.5.5 0 1 1-.708-.708L4.793 5.5 3.646 4.354a.5.5 0 1 1 .708-.708L5.5 4.793l1.146-1.147a.5.5 0 0 1 .708 0Z"/></svg>
